dist/assets/img/vector.svg

<svg width="539" height="141" viewBox="0 0 539 141" fill="none" xmlns="http://www.w3.org/2000/svg">
<path opacity="0.3" d="M204.55 20.768L151.571 99.4641L133.227 76.6065H5.80767C2.62018 76.6065 0 75.398 0 73.9286C0 72.4592 2.62018 71.2512 5.80767 71.2512H137.335C137.548 71.2512 137.689 71.2512 137.902 71.2837H137.973C138.184 71.2837 138.327 71.2837 138.397 71.3162L138.964 71.4141C139.105 71.4471 139.318 71.4796 139.531 71.4796C139.602 71.5121 139.672 71.5121 139.813 71.5451C139.884 71.5776 139.956 71.5776 140.027 71.5776L140.168 71.6101C140.309 71.6431 140.451 71.6755 140.522 71.708C140.734 71.7735 140.876 71.8059 140.947 71.8389C141.088 71.8714 141.231 71.9369 141.372 72.0019C141.513 72.0674 141.585 72.1328 141.656 72.1653C141.726 72.1978 141.797 72.2633 141.868 72.2957C141.938 72.3287 142.01 72.3612 142.08 72.4267V72.4592C142.151 72.5247 142.222 72.5571 142.292 72.6226C142.363 72.6551 142.363 72.6876 142.435 72.7206C142.505 72.7531 142.505 72.7856 142.576 72.851L142.647 72.8835L150.579 82.8429L206.463 0L264.329 121.212L324.532 39.1194L350.102 85.1615L370.287 57.7322L387.853 78.3043L398.264 72.2957C398.334 72.2633 398.334 72.2633 398.406 72.2308C398.477 72.1978 398.477 72.1978 398.547 72.1653C398.689 72.0998 398.831 72.0349 398.972 71.9694C399.114 71.9039 399.256 71.8714 399.397 71.8059C399.468 71.7735 399.539 71.7735 399.61 71.741C399.681 71.708 399.822 71.6755 399.893 71.6431C400.035 71.6101 400.176 71.5776 400.318 71.5451C400.388 71.5121 400.46 71.5121 400.531 71.4796C400.601 71.4471 400.743 71.4471 400.814 71.4141C401.026 71.4141 401.168 71.3816 401.31 71.3491H401.381C401.593 71.3161 401.735 71.3162 401.876 71.2837C401.947 71.2837 402.017 71.2837 402.16 71.2837C402.301 71.2837 402.372 71.2837 402.442 71.2837C402.514 71.2837 402.585 71.2837 402.655 71.2837C402.726 71.2837 402.726 71.2837 402.797 71.2837H533.195C536.373 71.2837 539 72.4917 539 73.9611C539 75.398 536.373 76.639 533.195 76.639H405.559L384.453 88.786L371.137 73.2104L348.614 103.84L322.974 57.7977L261.992 141L204.55 20.768Z" fill="white"/>
</svg>

<svg width="539" height="141" fill="none" xmlns="http://www.w3.org/2000/svg"><path opacity=".3" d="M204.55 20.768l-52.979 78.696-18.344-22.858H5.807C2.62 76.606 0 75.398 0 73.93c0-1.47 2.62-2.678 5.808-2.678h131.527c.213 0 .354 0 .567.033h.071c.211 0 .354 0 .424.032l.567.098c.141.033.354.066.567.066.071.032.141.032.282.065a.485.485 0 00.214.033l.141.032c.141.033.283.066.354.098.212.066.354.098.425.13.141.033.284.099.425.164.141.065.213.13.284.163.07.033.141.098.212.13.07.034.142.066.212.132v.032c.071.066.142.098.212.164.071.032.071.065.143.098.07.032.07.065.141.13l.071.032 7.932 9.96L206.463 0l57.866 121.212 60.203-82.093 25.57 46.043 20.185-27.43 17.566 20.572 10.411-6.008.142-.065.141-.066.425-.196c.142-.065.284-.098.425-.163.071-.032.142-.032.213-.065.071-.033.212-.066.283-.098l.425-.098c.07-.033.142-.033.213-.065.07-.033.212-.033.283-.066.212 0 .354-.032.496-.065h.071c.212-.033.354-.033.495-.065h131.319c3.178 0 5.805 1.208 5.805 2.677 0 1.437-2.627 2.678-5.805 2.678H405.559l-21.106 12.147-13.316-15.576-22.523 30.63-25.64-46.042L261.992 141 204.55 20.768z" fill="#fff"/></svg>
